src/assets/icons/fa/check-square.svg

<?xml version="1.0" encoding="utf-8"?>
<svg width="1792" height="1792" viewBox="0 0 1792 1792" xmlns="http://www.w3.org/2000/svg"><path d="M813 1299l614-614q19-19 19-45t-19-45l-102-102q-19-19-45-19t-45 19l-467 467-211-211q-19-19-45-19t-45 19l-102 102q-19 19-19 45t19 45l358 358q19 19 45 19t45-19zm851-883v960q0 119-84.5 203.5t-203.5 84.5h-960q-119 0-203.5-84.5t-84.5-203.5v-960q0-119 84.5-203.5t203.5-84.5h960q119 0 203.5 84.5t84.5 203.5z"/></svg>

<svg xmlns="http://www.w3.org/2000/svg" viewBox="0 0 1792 1792"><path d="M813 1299l614-614q19-19 19-45t-19-45l-102-102q-19-19-45-19t-45 19L768 960 557 749q-19-19-45-19t-45 19L365 851q-19 19-19 45t19 45l358 358q19 19 45 19t45-19zm851-883v960q0 119-84.5 203.5T1376 1664H416q-119 0-203.5-84.5T128 1376V416q0-119 84.5-203.5T416 128h960q119 0 203.5 84.5T1664 416z"/></svg>
